X:1
T:Man-o-War Sailor
M:4/4
L:1/4
K:Bb
 B,/2B,/2 B, D/2 F D/2| C/2C/2 C/2A,/2 B, z| B,/2B,/2 B, D/2 D3/2|\
 C C B, z| B/2B/2 B A/2 A A/2| G/2G/2 G/2G/2 F z| B,/2B,/2 B, D/2 D3/2|\
 C C B, z| B,/2B,/2 D F/2F/2 D| E G F z| B,/2B,/2 B, D/2 D3/2| C C B, z|\
